X:1
T:Non pianger piu Maria
T:Marc'Antonio Tornioli
T:Source : Canzonette spirituali a tre voci---Libro Primo---Venetia---Ang.Gardano---1607. Editor : André Vierendeels (22/06/16). 
T:Notes : Original clefs : C1, C1, F4 Editorial accidentals above the staff See also the "Riposta : Che io non pianga": answer to this canzonetta
T:Non pianger piu Maria
T:©
T:©
C:Marc'Antonio Tornioli
Z:©
%%score [ 1 2 3 ]
L:1/8
Q:1/4=105
M:4/4
K:C
V:1 treble nm="Soprano 1" snm="S 1"
V:2 treble nm="Soprano 2" snm="S 2"
V:3 bass nm="Bass" snm="B"
V:1
 z4 d4 | d6 d2 | d4 G4 | F8 | E4 z4 | z4 d2 B2 | e2 dc d4 | c4 d4 | ddBB AAGA | A4 B4 | z4 e4 | %11
w: Non|pian- ger|piu Ma-|ri-|a,|e se|pur pian- ger vuoi,|sian _|pian- ti di le- ti- tia'i pian- ti|tuo- i,|sian|
w: Ec-|co'il tuo|Fi- gli'o|Ma-|dre,|deh con-|so- la- ti'o- mai,|pon fi-|ne'al pian- to, e'a gl'an- go- scio- si|gua- i,|go-|
 eecc BBAB | B8 | A8 :| z4 c2 cc | BG c4 B2 | c4 e2 d2 | c2 dc B4 | G4 ^F2 A2- | A2 d4 ^c2 | %20
w: pian- ti di le- ti- tia'i pian- ti|tuo-|iI|Ec- co'il tuo|lu- m'e- ter- *|no, vin- ci-|tor del- la Mor-|t'e dell' in-|* fer- *|
w: di nel- la sua gio- ia, nel- la|gio-|ia.|E con la|mor- te su- *|a, tua mor-|te mu- o- i-|a,- mor- te|_ muo- *|
 d4 B2 A2 | G2 AG ^F4 | d4 c2 e2 | e2 dc/B/ A4 | G8 :| %25
w: no, vin- ci-|tor del- la Mor-|t'e dell' in|fer- * * * *||
w: ia, tua mor-|te mu- o- i-|a, mor- te|mu- o- * * i|a.|
V:2
 B8 | A6 A2 | B2 B2 cG c2- | c2 BA B4 | c4 B2 G2 | c2 BA B3 A | G3 A B c2 B | c4 B4 | AAGD ^FFGE | %9
w: Non|pian- ger|piu Ma- ri- * *||a, e se|piu pian- ger vuo- *||i, sian|pian- ti di le- ti- tia'i pian- ti|
w: Ec-|co'il tuo|Fi- gli'o Ma- * *||dre deh con-|so- la- ti'o- ma _|_ _ _ _ i|pon fi-|ne'al pian- to, e'a gl'an- go- scio- si|
 ^F G2 F G4 | z4 c4 | BBAE ^GGA^F | ^G2 A3 G/^F/ G2 | A8 :| B2 BB A2 G2 | G4 D4 | E8 | z4 d2 c2 | %18
w: tuo- * * i,|sian|pian- ti di le- ti- tia'i pian- ti|tuo- * * * *|i.|Ec- co'il tuo lu- m'e-|ter- *|no,|vin- ci-|
w: gua- * * i,|go-|di nel- la sua gio- ia nel- la|gio- * * * *|ia.|E con la mor- te|su- *|a,|tua mor-|
 B2 cB d2 ^F2 | ^F2 G2 E4 | ^F4 z4 | z4 A2 G2 | ^F2 GF E2 E2 | G2 G4 ^F2 | G8 :| %25
w: tor del- la Mor- t'e|dell' in- fer-|no,|vin- ci-|tor del- la Mor- t'e|dell' in- fer-||
w: te mu- o- i- a,|mor- te muo-|ia,|tua mor-|te mu- o- i- a,|mor- te muo-|ia.|
V:3
 G,8 | G,4 ^F,4 | G,4 E,4 | D,8 | C,4 G,2 E,2 | A,2 G,F, G,4 | E,4 z4 | z4 G,4 | %8
w: Non|pian- ger|piu Ma-|ri|a, e se|piu pian- ger vuo-|i,|sian|
w: Ec-|co'il tuo|Fi- gl'io|ma-|dre deh con|so la- ti'o- ma-|i,|pon|
 ^F,F,G,G,, D,D,E,^C, | D,4 G,4 | A,8 | ^G,G,A,A,, E,E,F,D, | E,8 | A,,8 :| G,2 G,G, F,2 E,2 | %15
w: pian- ti di le- ti- tia'i pian- ti|tuo- i,|sian|pian- ti di le- ti- tia'i pian- ti|tuo-|i.|Ec- co'il tuo lu- m'e-|
w: fi- ne'al pian- to'e'a gl'an- go- scio- si|gua- i,|go-|di nel- la sua gio- ia, nel- la|gio-|ia.|E con la mor- te|
 E,4 G,4 | C,4 C2 B,2 | A,2 B,A, G,4- | G,2 E,2 D,4- | D,2 G,,2 A,,4 | D,4 G,2 F,2 | %21
w: ter- *|no, vin- ci-|tor del- la Mor-|* t'e dell'|_ in- fer-|no, vin- ci-|
w: su- *|a, tua mor-|te mu- o- i-|a, _ mor-|* te muo-|ia, tua mor-|
 E,2 F,E, D,4- | D,2 B,,2 C,4- | C,2 B,,2 D,4 | G,,8 :| %25
w: tor del- la Mor-|* t'e dell'|_ in- fer-||
w: te mu- o- i-|* a, mor-|* te muo-|ia.|

